!!!COM: Bach, Johann Sebastian
!!!CDT: 1685/03/31-1750/07/28
!!!OTL: Sinfonia 10 in G major
!!!SCA: BWV 796
**kern	**kern	**kern
*staff3	*staff2	*staff1
*I"	*I"	*I"
*clefF4	*clefG2	*clefG2
*k[f#]	*k[f#]	*k[f#]
*G:	*G:	*G:
*M3/4	*M3/4	*M3/4
*MM88	*MM99	*MM99
=1	=1	=1
4GG	2.r	8r
.	.	8.gL
4BB	.	.
.	.	16f#L
.	.	16g
.	.	16aJJ
4GG	.	16bLL
.	.	16cc
.	.	16dd
.	.	16bJJ
=2	=2	=2
4C	2.r	16eeLL
.	.	16dd
.	.	16cc
.	.	16bJJ
4D	.	16aLL
.	.	16g
.	.	16f#
.	.	16eJJ
4DD	.	16dLL
.	.	16cc
.	.	16b
.	.	16aJJ
=3	=3	=3
4GG	8r	[4b
.	8.dL	.
4G	.	16bLL]
.	16c#XL	16a
.	16d	16b
.	16eJJ	16cc#XJJ
4F#	16f#LL	[4dd
.	16g	.
.	16a	.
.	16f#JJ	.
!!LO:LB:g=original
=4	=4	=4
4G	16bLL	2dd]
.	16a	.
.	16g	.
.	16f#JJ	.
4A	16eLL	.
.	16d	.
.	16c#X	.
.	16BJJ	.
4AA	16ALL	4cc#X
.	16g	.
.	16f#	.
.	16eJJ	.
=5	=5	=5
4D	16f#LL	[4dd
.	16A	.
.	16B	.
.	16c#XJJ	.
4r	16dLL	16ddLL]
.	16e	16cc#X
.	16f#	16dd
.	16gJJ	16eeJJ
4r	16aLL	16ff#LL
.	16b	16gg
.	16ccn	16aa
.	16aJJ	16ff#JJ
=6	=6	=6
2.r	8ddL	16bbLL
.	.	16aa
.	8b	16gg
.	.	16ff#JJ
.	8g	16eeLL
.	.	16dd
.	8eJ	16cc
.	.	16bJJ
.	[4cc	16aLL
.	.	16gg
.	.	16ff#
.	.	16eeJJ
=7	=7	=7
8r	16ccLL]	[4dd
.	16cc	.
8.GL	16b	.
.	16aJJ	.
.	[4b	16ddLL]
16F#L	.	16dd
16G	.	16ee
16AJJ	.	16ff#JJ
16BLL	16bLL]	[4gg
16c	16a	.
16d	16b	.
16BJJ	16gJJ	.
!!LO:LB:g=original
=8	=8	=8
16eLL	[2cc	8ggL]
16d	.	.
16c	.	8ee
16BJJ	.	.
16ALL	.	8cc
16G	.	.
16F#	.	8aJ
16EJJ	.	.
16DLL	16ccLL]	[4ff#
16c	16ee	.
16B	16dd	.
16AJJ	16ccJJ	.
=9	=9	=9
16dLL	[2b	8ff#L]
16c	.	.
16B	.	8ddJ
16AJJ	.	.
16GLL	.	8b
16F#	.	.
16E	.	8gJ
16DJJ	.	.
16CLL	16bLL]	[4ee
16B	16dd	.
16A	16cc	.
16GJJ	16bJJ	.
=10	=10	=10
16cLL	[2a	8eeL]
16B	.	.
16A	.	8cc
16GJJ	.	.
16F#LL	.	8a
16E	.	.
16D#X	.	8f#J
16C#XJJ	.	.
16BBLL	16aLL]	4dd#X
16A	16ccn	.
16G	16b	.
16F#JJ	16aJJ	.
=11	=11	=11
8.EL	16gLL	4ee
.	16a	.
.	16g	.
16D#XJk	16f#JJ	.
16ELL	16eLL	4r
16F#	16d#X	.
16G	16e	.
16AJJ	16f#JJ	.
8BL	16gLL	[4ee
.	16a	.
8EJ	16b	.
.	16gJJ	.
!!LO:LB:g=original
=12	=12	=12
8AL	16ccLL	4ee]
.	16b	.
8F#J	16a	.
.	16gJJ	.
4.B	16f#LL	8ddL
.	16e	.
.	16d	8ccJ
.	16cJJ	.
.	16BLL	[4dd
.	16a	.
8A	16g#X	.
.	16f#JJ	.
=13	=13	=13
8G#XL	2.e	16ddLL]
.	.	16dd
16AL	.	16cc
16BJJ	.	16bJJ
8cL	.	16aLL
.	.	16g#X
8B	.	16a
.	.	16bJJ
8A	.	16ccLL
.	.	16dd
[8cJ	.	16ee
.	.	16ccJJ
=14	=14	=14
8cL]	2.d	16ffnLL
.	.	16ee
16BL	.	16dd
16AJJ	.	16ccJJ
8G#XL	.	16bLL
.	.	16a
8B	.	16g#X
.	.	16f#XJJ
8G#	.	16eLL
.	.	16dd
8EJ	.	16cc
.	.	16bJJ
!!LO:LB:g=original
=15	=15	=15
8F#L	8cL	16aLL
.	.	16g#X
8G#X	8B	16a
.	.	16bJJ
8A	8A	16ccLL
.	.	16dd
8D#X	8c	16ee
.	.	16ff#JJ
8E	8B	16ggnLL
.	.	16aa
8GnJ	[8eJ	16bb
.	.	16ggJJ
=16	=16	=16
*	*	*
[2A	8eL]	16cccLL
.	.	16bb
.	8c	16aa
.	.	16ggJJ
*	*clefF4	*
.	8A	16ff#LL
.	.	16ee
.	8F#J	16dd#X
.	.	16cc#XJJ
16ALL]	[4d#	16bLL
16cn	.	16aa
16B	.	16gg
16AJJ	.	16ff#JJ
=17	=17	=17
[2G	8d#]L	16bbLL
.	.	16aa
.	8B	16gg
.	.	16ff#JJ
.	8G	16eeLL
.	.	16ddn
.	8EJ	16cc#X
.	.	16bJJ
16GLL]	[4c#X	16aLL
16B	.	16gg
16A	.	16ff#
16GJJ	.	16eeJJ
!!LO:LB:g=original
=18	=18	=18
[2F#	8c#L]	16aaLL
.	.	16gg
.	8A	16ff#
.	.	16eeJJ
.	8F#	16ddLL
.	.	16cc#X
.	8DJ	16b
.	.	16aJJ
16F#LL]	[4B	16gLL
16A	.	16ff#
16G	.	16ee
16F#JJ	.	16ddJJ
=19	=19	=19
[2E	8BL]	16ggLL
.	.	16ff#
.	8G	16ee
.	.	16ddJJ
.	8E	16cc#XLL
.	.	16b
.	8C#XJ	16a#X
.	.	16g#XJJ
16ELL]	4A#X	16f#LL
16G	.	16ee
16F#	.	16dd
16EJJ	.	16cc#JJ
=20	=20	=20
4D	[4B	16ff#LL
.	.	16ee
.	.	16dd
.	.	16cc#XJJ
4G	16BLL]	[2b
.	16A#X	.
.	16B	.
*	*clefG2	*
.	16c#XJJ	.
4F#	16dLL	.
.	16e	.
.	16f#	.
.	16dJJ	.
!!LO:LB:g=original
=21	=21	=21
4E	16gLL	2b]
.	16f#	.
.	16e	.
.	16dJJ	.
4F#	16c#XLL	.
.	16B	.
.	16A#X	.
.	16G#XJJ	.
4FF#	16F#LL	4a#X
*	*clefG2	*
.	16e	.
.	16d	.
.	16c#XJJ	.
=22	=22	=22
[4BB	16dLL	[4b
.	16f#	.
.	16g#X	.
.	16a#XJJ	.
16BBLL]	8bL	8bL]
16AAn	.	.
16BB	8ccn	8ee
16CnJJ	.	.
16DLL	8b	8dd
16E	.	.
16Fn	8anJ	8ccJ
16CJJ	.	.
=23	=23	=23
16DLL	2.g#X	8bL
16E	.	.
16D	.	8ffn
16CJJ	.	.
16BBLL	.	8ee
16AA	.	.
16GG#X	.	8dd
16FF#XJJ	.	.
16EELL	.	8cc
16D	.	.
16C	.	8bJ
16BBJJ	.	.
!!LO:LB:g=original
=24	=24	=24
[4AA	16r	[4cc
.	16eLL	.
.	16f#X	.
.	16g#XJJ	.
16AALL]	8aL	8ccL]
16GG#X	.	.
16AA	8b	8dd
16BBJJ	.	.
16CLL	8a	8cc
16D	.	.
16E	8gnJ	8bJ
16BBJJ	.	.
=25	=25	=25
16CLL	2.f#	8aL
16D	.	.
16C	.	8ee
16BBJJ	.	.
16AALL	.	8dd
16GG	.	.
16FF#	.	8cc
16EEJJ	.	.
16DDLL	.	8b
16C	.	.
16BB	.	8aJ
16AAJJ	.	.
=26	=26	=26
8GGL	16r	4b
.	16dLL	.
8BBJ	16e	.
.	16f#JJ	.
8DL	16gLL	4r
.	16f#	.
8F#	16g	.
.	16aJJ	.
8G	16bLL	[4gg
.	16cc	.
8BJ	16dd	.
.	16bJJ	.
!!LO:LB:g=original
=27	=27	=27
8cL	16eeLL	4gg_
.	16dd	.
8AJ	16cc	.
.	16bJJ	.
[4d	16aLL	16ggLL]
.	16g	16bb
.	16f#	16aa
.	16eJJ	16ggJJ
16dLL]	16dLL	4ff#
16e	16cc	.
16d	16b	.
16cJJ	16aJJ	.
=28	=28	=28
8BL	16ddLL	[4ffn
.	16cc	.
8GJ	16b	.
.	16aJJ	.
[4c	16gLL	16ffLL]
.	16fn	16aa
.	16e	16gg
.	16dJJ	16ffJJ
16cLL]	16cLL	[4ee
16d	16b	.
16c	16a	.
16BJJ	16gJJ	.
=29	=29	=29
8AL	16ccLL	4ee_
.	16b	.
8F#J	16a	.
.	16gJJ	.
[4B	16f#LL	16eeLL]
.	16e	16gg
.	16d	16ff#X
.	16cJJ	16eeJJ
16BLL]	16BLL	[4dd
16c	16a	.
16B	16g	.
16AJJ	16f#JJ	.
!!LO:LB:g=original
=30	=30	=30
8GL	16bLL	4dd_
.	16a	.
8EJ	16g	.
.	16f#JJ	.
[4A	16eLL	16ddLL]
.	16d	16ffn
.	16c	16ee
.	16BJJ	16ddJJ
16A]LL	16ALL	[4cc
16B	16g	.
16A	16f#X	.
16GJJ	16eJJ	.
=31	=31	=31
16F#LL	4d	16ccLL]
16E	.	16cc
16D	.	16b
16CJJ	.	16aJJ
16BBLL	4r	16gLL
16AA	.	16f#
16GG	.	16g
16FF#JJ	.	16aJJ
16GGLL	[4g	16bLL
16AA	.	16cc
16BB	.	16dd
16GGJJ	.	16bJJ
=32	=32	=32
16CLL	2g]	16eeLL
16AA	.	16dd
16BB	.	16cc
16CJJ	.	16bJJ
8DL	.	16aLL
.	.	16g
8C	.	16f#
.	.	16eJJ
8D	4f#	16dLL
.	.	16cc
8DDJ	.	16b
.	.	16aJJ
=33	=33	=33
2.GG;	2.g;	2.b;
==	==	==
*-	*-	*-
!!!system-decoration: [(s1,s2,s3)]
!!!URL-pdf: https://vmirror.imslp.org/files/imglnks/usimg/5/55/IMSLP396136-PMLP03268-Bach,_Johann_Sebastian-Werke_Breitkopf_Band_3_02_BWV_787-801.pdf#page=14 Bach-Gesellschaft Ausgabe, Band 3 (pp.19-42) Leipzig: Breitkopf und Härtel, 1853. Plate B.W. III.
!!!URL-youtube: https://www.youtube.com/watch?v=Lao8x1bHWEg&t=1203s Malinowski
!!!SMS: Bach-Gesellschaft Ausgabe, Band 3 (pp.19-42) Leipzig: Breitkopf und Härtel, 1853. Plate B.W. III.
!!!ONB: Open-score format
!!!ENC: Craig Stuart Sapp
!!!END: 2024/03/29
!!!EED: Craig Stuart Sapp
!!!EEV: 2024/03/29
!!!title: @{OTL} (@{SCA})
!!!voices: 3
!!!AGN: polyphony
!!!AST: baroque
!!!AMT: simple triple
!!!AIN: cemb; clavi
